build/category/CreateForkSolid.svg

<svg xmlns="http://www.w3.org/2000/svg" fill="none" viewBox="0 0 24 24" focusable="false"><path d="M0 0H24V24H0z"/><path fill="#74767B" fill-rule="evenodd" d="M2 5C2 3.34315 3.34315 2 5 2L19 2C20.6569 2 22 3.34315 22 5L22 19C22 20.6569 20.6569 22 19 22L5 22C3.34315 22 2 20.6569 2 19L2 5ZM16.1538 20.057C15.9085 19.7948 15.9222 19.3835 16.1843 19.1382L17.7747 17.65L11.6518 17.65C9.63592 17.65 8.00176 16.0158 8.00176 14L8.00176 12.6572L4.6541 12.6572C4.29512 12.6572 4.0041 12.3662 4.0041 12.0072C4.0041 11.6482 4.29512 11.3572 4.6541 11.3572L8.00176 11.3572L8.00176 10C8.00176 7.98416 9.63593 6.35 11.6518 6.35L12.0349 6.35C12.3939 6.35 12.6849 6.64101 12.6849 7C12.6849 7.35898 12.3939 7.65 12.0349 7.65L11.6518 7.65C10.3539 7.65 9.30176 8.70213 9.30176 10L9.30176 14C9.30176 15.2979 10.3539 16.35 11.6518 16.35L17.7271 16.35L16.18 14.8753C15.9201 14.6277 15.9102 14.2162 16.1579 13.9564C16.4056 13.6965 16.817 13.6866 17.0769 13.9343L19.8298 16.5583C19.8357 16.5638 19.8416 16.5695 19.8473 16.5752C19.9 16.6284 19.9417 16.6885 19.9723 16.7527C20.0573 16.9305 20.0563 17.1381 19.9715 17.3146C19.9401 17.3798 19.8973 17.4408 19.8431 17.4945C19.8373 17.5002 19.8315 17.5057 19.8257 17.5111L17.0725 20.0874C16.8104 20.3327 16.3991 20.3191 16.1538 20.057ZM16.9961 3.99648C17.3551 3.99648 17.6461 4.2875 17.6461 4.64648L17.6461 6.35854L19.358 6.35854C19.7169 6.35854 20.008 6.64956 20.008 7.00854C20.008 7.36753 19.7169 7.65855 19.358 7.65855L17.6461 7.65855L17.6461 9.37045C17.6461 9.72944 17.3551 10.0205 16.9961 10.0205C16.6372 10.0205 16.3461 9.72944 16.3461 9.37045L16.3461 7.65854L14.634 7.65854C14.275 7.65854 13.984 7.36753 13.984 7.00854C13.984 6.64956 14.275 6.35854 14.634 6.35854L16.3461 6.35854L16.3461 4.64648C16.3461 4.2875 16.6372 3.99648 16.9961 3.99648Z"/></svg>

<svg xmlns="http://www.w3.org/2000/svg" fill="none" viewBox="0 0 24 24" focusable="false"><path fill="#74767B" fill-rule="evenodd" d="M2 5c0-1.66 1.34-3 3-3h14c1.65 0 3 1.34 3 3v14c0 1.65-1.35 3-3 3H5c-1.66 0-3-1.35-3-3zm14.15 15.05a.65.65 0 0 1 .03-.92l1.59-1.48h-6.12C9.63 17.65 8 16.01 8 14v-1.35H4.65c-.36 0-.65-.29-.65-.65s.29-.65.65-.65H8V10c0-2.02 1.63-3.65 3.65-3.65h.38c.36 0 .65.29.65.65 0 .35-.29.64-.65.64h-.38C10.35 7.64 9.3 8.7 9.3 10v4c0 1.29 1.05 2.35 2.35 2.35h6.07l-1.55-1.48a.67.67 0 0 1-.02-.92c.25-.26.66-.27.92-.02l2.75 2.62c.01.01.02.01.02.02.05.05.1.11.13.18.08.18.08.38 0 .56-.03.06-.08.13-.13.18l-.02.02-2.75 2.57a.65.65 0 0 1-.92-.03m.84-16.06c.36 0 .65.29.65.65v1.71h1.71c.36 0 .65.29.65.65s-.29.65-.65.65h-1.71v1.72c0 .35-.29.65-.65.65s-.65-.3-.65-.65V7.65h-1.71c-.36 0-.65-.29-.65-.65s.29-.65.65-.65h1.71V4.64c0-.36.29-.65.65-.65"/></svg>
